X:1
T:Title
%%score ( 1 2 ) ( 3 4 )
L:1/8
Q:1/4=90
M:3/4
K:F
V:1 treble nm="Violin, Soprano"
V:2 treble 
V:3 bass nm="Violin, Bass"
V:4 bass 
V:1
 z2 z2 C>[CF] | [FA]3- [FA]/[EG]/ [EB]>[EG] | [FA]2 [CF]2 [CF]>[FA] | c2 z2 z2 | [Ec]4 C>[CF] | %5
 [FA]3- [FA]/[EG]/ [EB]>[EG] | [FA]2 [CF]2 [Fd]>[FB] | [Ec]2 [CA]2 [CB]>[CG] | [CF]4 [CA]>[CB] | %9
 [Fc]3- [Fc]/[FA]/ [Fd]>[Fd] | [Fc]2 [EB]2 [EG]>[FA] | [GB]3- [GB]/[EG]/ [Ec]>[Ec] | %12
 [GB]2 [FA]2 [CA]>[CB] | [Fc]3- [Fc]/F/ [FG]>[FA] | B2 z2[Q:1/4=90] z2[Q:1/4=12] | %15
 [Ec]2 [CA]2 [CB]>[CG] | [CF]4 z2 |] %17
V:2
 x6 | x6 | x6 | F2- [FA]2 [Fd]>[F=B] | x6 | x6 | x6 | x6 | x6 | x6 | x6 | x6 | x6 | x6 | %14
 F2- [Fd]2 [Fd]>[F=B] | x6 | x6 |] %17
V:3
 z2 z2 [F,A,]>[F,A,] | [F,C]3- [F,C]/[C,C]/ [C,C]>[C,C] | C2 z2 z2 | A,2 z2 z2 | %4
w: 1.~Have~ you~|heard~ * the~ joy ful~|sound?~|heals,~|
 [C,G,]4 [F,A,]>[F,A,] | [F,C]3- [F,C]/[C,C]/ [C,C]>[C,C] | C2 z2 z2 | G,2 z2 z2 | %8
w: heals;~ Through~ the~|Spir * it~ we~ have~|found~|heals,~|
 [F,A,]4 F,>[F,G,] | [F,A,]3- [F,A,]/[F,C]/ [B,,B,]>[B,,B,] | A,2 z2 z2 | %11
w: heals.~ Yes,~ He~|heals~ * the~ blind~ and~|lame,~|
 [C,C]3- [C,C]/[C,C]/ [C,C]>[C,C] | [F,C]4 F,>[F,G,] | [F,A,]3- [F,A,]/[_E,A,]/ [D,B,]>[C,C] | %14
w: pow'r~ * is~ just~ the~|same~ As~ when~|first~ * to~ earth~ He~|
 D2 z2 z2 | G,2 z2 z2 | [F,A,]4 z2 |] %17
w: came,~|heals,~|heals.~|
V:4
 x6 | x6 | F,2- [F,A,]2 [F,A,]>[F,C] | F,2- [F,C]2 [D,=B,]>G, | x6 | x6 | %6
w: ||* * * sus~|* * * sus~|||
 F,2- [F,A,]2 [D,G,]>[D,G,] | C,2- [C,F,]2 [C,G,]>[C,B,] | x6 | x6 | C,2- [C,G,]2 [C,C]>[C,C] | %11
w: * * * sus~|* * * sus~|||* * * His~|
 x6 | x6 | x6 | B,,2- [B,,B,]2 [D,G,]>[D,G,] | C,2- [C,F,]2 [C,G,]>[C,B,] | x6 |] %17
w: |||* * * sus~|* * * sus~||

